!!!SOCIAL_FUNCTION:	dream songs
!!!PDT:	1932
!!!OTL: No_59_Song_Concerning_the_Figurines.krn
!!!REG: Wisconsin
!!!LANG: Non-Tone
!!!LING_GROUP: Algonquin
**kern
*staff1
=1-
*clefF4
*k[b-e-a-d-g-]
*M2/4
4r
8r
16r
16d-\
=2
8d-\L
8A-\J
8d-\L
8d-\J
=3
4.d-\
16A-\LL
16A-\JJ
=4
2A-\
=5
8G-\L
8F\J
8F\L
8E-\J
=6
4.E-\
16D-\LL
16D-\JJ
=7
4D-\
4r
=8
8A-\L
8A-\J
8A-\L
8A-\J
=9
4.A-\
16A-\LL
16A-\JJ
=10
2A-\
=11
8A-\L
8A-\J
8A-\L
8G-\J
=12
4.G-\
16F\LL
16E-\JJ
=13
2D-\
=14
8D-\L
8D-\J
8D-\L
8D-\J
=15
4D-\
8r
16F\LL
16F\JJ
=16
2F\
=17
8F\L
8E-\J
8E-\L
8F\J
=18
4.D-\
16D-\LL
16D-\JJ
=19
2D-\
=20
4D-\
8r
16A-\LL
16A-\JJ
=21
8A-\L
8E-\J
8G-\L
8F\J
=22
4.D-\
16D-\LL
16D-\JJ
=23
4D-\
8r
16A-\LL
16A-\JJ
=24
8A-\L
8A-\J
8A-\L
8A-\J
=25
4.A-\
16A-\LL
16A-\JJ
=26
2A-\
=27
8A-\L
8A-\J
8A-\L
8G-\J
=28
4.G-\
16F\LL
16E-\JJ
=29
2D-\
=30
8D-\L
8D-\J
8D-\L
8D-\J
=31
4D-\
8r
16F\LL
16F\JJ
=32
2F\
=33
8F\L
8E-\J
8E-\L
8F\J
=34
4.D-\
16D-\LL
16D-\JJ
=35
2D-\
=36
4D-\
4r
==
*-
